app/dist/common/images/quilter-plc.svg

<svg fill="none" height="18" viewBox="0 0 18 18" width="18" xmlns="http://www.w3.org/2000/svg" xmlns:xlink="http://www.w3.org/1999/xlink"><linearGradient id="a" gradientUnits="userSpaceOnUse" x1="2.25" x2="16.7143" y1="2.25" y2="14.9464"><stop offset=".468717" stop-color="#199849"/><stop offset=".46875" stop-color="#0d7b3e"/></linearGradient><path d="m0 0h18v18h-18z" fill="url(#a)"/><path clip-rule="evenodd" d="m9 4c2.2059 0 4 1.70623 4 4.02929 0 2.20081-1.6176 3.78731-3.67647 3.97071.26471.2751.67647 1 1.67647 1h1v1s-.5-.0001-1-.0001-1.35294-.0131-2.23529-1.9999c-2.08824-.1223-3.76471-1.7699-3.76471-3.97071 0-2.32306 1.79412-4.02929 4-4.02929zm0 .5c1.4118 0 2.4 1.38963 2.4 3.52929 0 2.13971-.9882 3.47071-2.4 3.47071-1.41177 0-2.4-1.331-2.4-3.47071 0-2.13966.98823-3.52929 2.4-3.52929z" fill="#f0f3fa" fill-rule="evenodd"/></svg>

<!-- by TradingView --><svg width="18" height="18" viewBox="0 0 18 18" fill="none" xmlns="http://www.w3.org/2000/svg">
<rect width="18" height="18" fill="url(#paint0_linear_5099_145027)"/>
<path fill-rule="evenodd" clip-rule="evenodd" d="M9 4C11.2059 4 13 5.70623 13 8.02929C13 10.2301 11.3824 11.8166 9.32353 12C9.58824 12.2751 10 13 11 13C11.2647 13 11.5714 13 12 13V14C12 14 11.5 13.9999 11 13.9999C10.5 13.9999 9.64706 13.9868 8.76471 12C6.67647 11.8777 5 10.2301 5 8.02929C5 5.70623 6.79412 4 9 4ZM9 4.5C10.4118 4.5 11.4 5.88963 11.4 8.02929C11.4 10.169 10.4118 11.5 9 11.5C7.58823 11.5 6.6 10.169 6.6 8.02929C6.6 5.88963 7.58823 4.5 9 4.5Z" fill="#F0F3FA"/>
<defs>
<linearGradient id="paint0_linear_5099_145027" x1="2.25" y1="2.25" x2="16.7143" y2="14.9464" gradientUnits="userSpaceOnUse">
<stop offset="0.468717" stop-color="#199849"/>
<stop offset="0.46875" stop-color="#0D7B3E"/>
</linearGradient>
</defs>
</svg>
